assets/icons/functional/design/stack.svg

<svg xmlns="http://www.w3.org/2000/svg" width="32" height="32" fill="none"><path stroke="#101828" stroke-linecap="round" stroke-linejoin="round" stroke-width="2" d="m4 22 12 7 12-7"/><path stroke="#101828" stroke-linecap="round" stroke-linejoin="round" stroke-width="2" d="m4 16 12 7 12-7"/><path stroke="#101828" stroke-linecap="round" stroke-linejoin="round" stroke-width="2" d="m4 10 12 7 12-7-12-7-12 7Z"/></svg>

<svg width="32" height="32" viewBox="0 0 32 32" fill="none" xmlns="http://www.w3.org/2000/svg"><g id="Icon-Stack"><g clip-path="url(#clip0_8_88)"><g id="size=md (32px)"><g id="Stack"><path id="Vector" d="M4 22L16 29L28 22" stroke="#101828" stroke-width="2" stroke-linecap="round" stroke-linejoin="round"/><path id="Vector_2" d="M4 16L16 23L28 16" stroke="#101828" stroke-width="2" stroke-linecap="round" stroke-linejoin="round"/><path id="Vector_3" d="M4 10L16 17L28 10L16 3L4 10Z" stroke="#101828" stroke-width="2" stroke-linecap="round" stroke-linejoin="round"/></g></g></g></g><defs><clipPath id="clip0_8_88"><rect width="32" height="32" rx="5" fill="white"/></clipPath></defs></svg>
